images/icon-informatieveiligheid.svg

<svg height="40" viewBox="0 0 76 40" width="76" xmlns="http://www.w3.org/2000/svg"><path d="m36.0707443 19.1542479-6.1643829 7.0718447c-.8228532.9416769-2.0122798 1.4821338-3.2628167 1.4825731h-9.2855894l-1.6126233 1.6126234-5.745332-5.6008317 4.1182586-4.0922485c1.7059193-1.6948405 4.2301687-2.2661357 6.4996235-1.4710131l.9074619.3179007h5.5603716c.4741574-.0002331.9281465.1918013 1.2582122.5322157.3300658.3404143.5079978.8001137.4931314 1.274038-.0540811.9625341-.8567307 1.7116737-1.8207038 1.6993236h-3.3437369c-.2537387-.0165433-.4956121.1094385-.6274995.3268384s-.1318874.4901161 0 .707516.3737608.3433817.6274995.3268384h3.3437369c1.6954707.0021206 3.0942344-1.3267048 3.1790067-3.0200563 0 0 0-.0289 0-.0433501l3.0894164-3.4680072c.6518919-.7563738 1.7830541-.8670724 2.5692153-.2514305.3778266.3122085.6138205.7635623.6546135 1.2519915.0407931.4884291-.1170603.9726766-.437863 1.3432339zm-2.407375-15.08583142v.36703077c0 .40171083 0 .81498169.01734 1.25715261.0375701 1.94497405.0780302 4.2251888-.5780012 6.35801324-.9100595 2.8874466-3.5877568 4.8510418-6.6152238 4.8510418-3.0274669 0-5.7051643-1.9635952-6.6152237-4.8510418-.6618114-2.12993443-.6213513-4.40725917-.5780012-6.35801324 0-.43928091.01734-.8670018.01734-1.25715261v-.36703077c0-.30166408.244547-.54621114.5462111-.54621114h.3670308c2.3813649 0 4.1182586-.65314136 5.6355117-2.11837441l.2572106-.24854051c.2121775-.20705389.550784-.20705389.7629615 0l.2572106.24854051c1.4941331 1.46523305 3.2310267 2.11837441 5.6181717 2.11837441h.3670307c.2994045.00316848.5404479.24678995.5404312.54621114zm-3.9072882 3.36685701-.7167215-.7225015c-.1870967-.18589202-.4891647-.18589202-.6762614 0l-2.6934856 2.69348561-1.0519622-1.04618218c-.188968-.18129659-.4872933-.18129659-.6762614 0l-.7225015.73117152c-.185892.18709671-.185892.4891647 0 .67626141l2.1068144 2.10681435c.1870967.1858921.4891647.1858921.6762614 0l3.7570078-3.75700779c.0906899-.09049594.1414147-.21350712.1408719-.34162375-.0005429-.12811662-.0523084-.25069352-.1437619-.34041767z" fill="#fff" transform="translate(15 5)"/></svg>

<?xml version="1.0" encoding="UTF-8" standalone="no"?>
<svg width="76px" height="40px" viewBox="0 0 76 40" version="1.1" xmlns="http://www.w3.org/2000/svg" xmlns:xlink="http://www.w3.org/1999/xlink">
    <!-- Generator: Sketch 45 (43475) - http://www.bohemiancoding.com/sketch -->
    <title>icon-informatieveiligheid</title>
    <desc>Created with Sketch.</desc>
    <defs></defs>
    <g id="Page-1" stroke="none" stroke-width="1" fill="none" fill-rule="evenodd">
        <g id="icon-informatieveiligheid">
            <g transform="translate(15.000000, 5.000000)" id="Shape" fill-rule="nonzero" fill="#FFFFFF">
                <path d="M36.0707443,19.1542479 L29.9063614,26.2260926 C29.0835082,27.1677695 27.8940816,27.7082264 26.6435447,27.7086657 L17.3579553,27.7086657 L15.745332,29.3212891 L10,23.7204574 L14.1182586,19.6282089 C15.8241779,17.9333684 18.3484273,17.3620732 20.6178821,18.1571958 L21.525344,18.4750965 L27.0857156,18.4750965 C27.559873,18.4748634 28.0138621,18.6668978 28.3439278,19.0073122 C28.6739936,19.3477265 28.8519256,19.8074259 28.8370592,20.2813502 C28.7829781,21.2438843 27.9803285,21.9930239 27.0163554,21.9806738 L23.6726185,21.9806738 C23.4188798,21.9641305 23.1770064,22.0901123 23.045119,22.3075122 C22.9132316,22.5249121 22.9132316,22.7976283 23.045119,23.0150282 C23.1770064,23.2324281 23.4188798,23.3584099 23.6726185,23.3418666 L27.0163554,23.3418666 C28.7118261,23.3439872 30.1105898,22.0151618 30.1953621,20.3218103 C30.1953621,20.3218103 30.1953621,20.2929103 30.1953621,20.2784602 L33.2847785,16.810453 C33.9366704,16.0540792 35.0678326,15.9433806 35.8539938,16.5590225 C36.2318204,16.871231 36.4678143,17.3225848 36.5086073,17.811014 C36.5494004,18.2994431 36.391547,18.7836906 36.0707443,19.1542479 Z M33.6633693,4.06841648 L33.6633693,4.43544725 C33.6633693,4.83715808 33.6633693,5.25042894 33.6807093,5.69259986 C33.7182794,7.63757391 33.7587395,9.91778866 33.1027081,12.0506131 C32.1926486,14.9380597 29.5149513,16.9016549 26.4874843,16.9016549 C23.4600174,16.9016549 20.78232,14.9380597 19.8722606,12.0506131 C19.2104492,9.92067867 19.2509093,7.64335393 19.2942594,5.69259986 C19.2942594,5.25331895 19.3115994,4.82559806 19.3115994,4.43544725 L19.3115994,4.06841648 C19.3115994,3.7667524 19.5561464,3.52220534 19.8578105,3.52220534 L20.2248413,3.52220534 C22.6062062,3.52220534 24.3430999,2.86906398 25.860353,1.40383093 L26.1175636,1.15529042 C26.3297411,0.948236528 26.6683476,0.948236528 26.8805251,1.15529042 L27.1377357,1.40383093 C28.6318688,2.86906398 30.3687624,3.52220534 32.7559074,3.52220534 L33.1229381,3.52220534 C33.4223426,3.52537382 33.663386,3.76899529 33.6633693,4.06841648 Z M29.7560811,7.43527349 L29.0393596,6.71277199 C28.8522629,6.52687997 28.5501949,6.52687997 28.3630982,6.71277199 L25.6696126,9.4062576 L24.6176504,8.36007542 C24.4286824,8.17877883 24.1303571,8.17877883 23.941389,8.36007542 L23.2188875,9.09124694 C23.0329955,9.27834365 23.0329955,9.58041164 23.2188875,9.76750835 L25.3257019,11.8743227 C25.5127986,12.0602148 25.8148666,12.0602148 26.0019633,11.8743227 L29.7589711,8.11731491 C29.849661,8.02681897 29.9003858,7.90380779 29.899843,7.77569116 C29.8993001,7.64757454 29.8475346,7.52499764 29.7560811,7.43527349 Z"></path>
            </g>
            <g id="Group"></g>
        </g>
    </g>
</svg>
